X: 17138
T: Hellebore
R: reel
M: 4/4
K: Dmajor
|:FBdf e2cB|dedB c2cB|^ABcB A2FA|^ABcB dBc2|
FBdf e2cB|dedB c2cB|^ABcB A2FA|^ABcA B4:|
|:f3c e2cB|dedB c3B|^ABcB A2FA|^ABcB dBc2|
f3c e2cB|dedB c3B|^ABcB A2FA|^ABcA B4:|

